X:4
T:Mrs Cafrey. JBs.004
T:Mrs Casey,aka. JBs.004
R:Jig
S:Jas.Blackshaw MS, 1837, N.Shropshire
A:North Shropshire
N:A little uncertainty over phrase endings.
Z:T Weatherall 2006
M:6/8
L:1/8
Q:3/8=120
K:C
e/d/|c2A AGA|G2GG2G|A2A ABA|f3e2d|!
c2A ABA|G2GG2G|A2A ABA|f3e2:|!
|:d|c2de2f|g2ag2e|c2de2f|g3f2e|!
a2fg2e|f2de2c|A2A ABA|f3e2:|

